X:1
T:60 Lessons for 2 Guitars, Op.168 - Joseph Küffner (1776 - 1856)
T:Leçon No.54
T:60 Lessons for 2 Guitars, Op.168 "à l'usage des commençants"
T:Joseph Küffner (1776 - 1856)
%%score { ( 1 2 ) ( 3 4 ) }
L:1/8
Q:1/4=76
M:6/8
K:F
V:1 treble-8 nm="Classical Guitar"
V:2 treble-8 
V:3 treble-8 nm="Guitare classique"
V:4 treble-8 
V:1
"_" f |"^Andante" [FAc]2 [FAc] [FAc]2 [FAc] | !>![EBc]3 z z g | [EBc]2 [EBc] [EBc]2 [EBc] | %4
 [FAc]3 z z"_" a | [eg]2 [eg] [A,A^ce]2 [A,Ace] | !arpeggio![DAdf]3 [Af][Ge][Fd] | %7
 [Ec]2 [Ec] [Ge]2 [Fd] | [Ec]2 z z2 ::"_" g | (fe).d [EBc]2 [EBc] | [FAc]2 f f2 e | %12
!<(! d2 e f2 g!<)! |"_" [A,A^ca]3 b2 e | f2 f f2 e | [Bd]2 [Bd] [df]2 [Bd] | %16
 [Ac]2 [Af] [ca]2 [Bg] | [Af]2 z z2 :| %18
V:2
 x | x6 | x6 | x6 | x6 | x6 | x6 | x6 | x5 :: x | x6 | x6 | x6 | x3 z2 z | z2 A A2 =c | x6 | x6 | %17
 x5 :| %18
V:3
 z |"_" z/ F/A/c/F/A/ z/ F/A/c/F/A/ | z/ E/B/c/E/G/ z/ E/B/c/E/G/ | z/ E/B/c/E/G/ z/ E/B/c/E/G/ | %4
 z/ F/A/c/F/A/ z/ F/A/c/F/A/ |"_" z/ E/A/^c/E/A/ z/ E/A/c/E/A/ | z/ A/d/A/d/A/ D/A/E/A/F/A/ | %7
 z/ E/G/c/E/G/ z/ F/G/=B/F/G/ | z/ E/G/c/E/G/ C2 :: z |"_" z/ B/c/B/c/B/ z/ B/c/B/c/B/ | %11
 z/ A/c/A/c/A/ z/ A/^c/A/c/A/ | z/ A/d/A/d/A/ z/ B/d/B/d/B/ |"_" z/ A/^c/e/A/c/ z/ B/=c/e/B/c/ | %14
 z/ A/c/f/A/c/ z/ A/c/f/A/c/ | z/ F/B/d/F/B/ z/ F/B/d/F/B/ | z/ F/A/c/F/A/ z/ E/B/c/E/B/ | %17
 z/ F/A/c/F/A/ F,2 :| %18
V:4
 x | F,3 F,3 | G,3 G,3 | G,3 G,3 | F,3 F,3 | A,3 A,3 | D3 DEF | G,3 G,3 | C3 x2 :: x | E3 C3 | %11
 F,3 E,3 | D3 B,3 | A,3 G,3 | F3 A,3 | B,3 B,3 | C3 C3 | F,3 x2 :| %18

